svg/numerical_sorting_12.svg

<svg xmlns="http://www.w3.org/2000/svg" viewBox="0 0 32 32" enable-background="new 0 0 32 32"><path d="M 8.59375 5 L 8.4375 5.78125 C 8.4375 5.78125 8.2721192 6.3563499 7.875 6.9375 C 7.4778808 7.5186501 6.9796296 8 6 8 L 6 10 C 7.3763439 10 8.3188615 9.3245736 9 8.59375 L 9 15 L 11 15 L 11 6 L 11 5 L 10 5 L 9.40625 5 L 8.59375 5 z M 22 5 L 22 23.6875 L 19.40625 21.09375 L 18 22.5 L 22.28125 26.8125 L 23 27.5 L 23.71875 26.8125 L 28 22.5 L 26.59375 21.09375 L 24 23.6875 L 24 5 L 22 5 z M 8.5 17 C 6.5761905 17 5 18.57619 5 20.5 L 5 21 L 7 21 L 7 20.5 C 7 19.62381 7.6238095 19 8.5 19 L 9.5 19 C 10.37619 19 11 19.62381 11 20.5 C 11 20.955556 10.64653 21.478731 10.0625 21.84375 C 8.8282933 22.603262 7.7463538 23.087745 6.84375 23.59375 C 6.3924481 23.846753 5.9770999 24.090122 5.625 24.46875 C 5.2729001 24.847378 5 25.41859 5 26 L 5 27 L 6 27 L 13 27 L 13 25 L 8.4375 25 C 9.1731379 24.622117 10.018222 24.243594 11.125 23.5625 C 12.14097 22.927519 13 21.844444 13 20.5 C 13 18.57619 11.42381 17 9.5 17 L 8.5 17 z" color="#000" overflow="visible" enable-background="accumulate"/></svg>

<svg xmlns="http://www.w3.org/2000/svg" viewBox="0 0 32 32"><path d="M8.594 5l-.156.78s-.166.576-.563 1.157C7.478 7.52 6.98 8 6 8v2c1.376 0 2.32-.675 3-1.406V15h2V5H8.594zM22 5v18.688l-2.594-2.594L18 22.5l4.28 4.313.72.687.72-.688L28 22.5l-1.406-1.406L24 23.687V5h-2zM8.5 17C6.576 17 5 18.576 5 20.5v.5h2v-.5c0-.876.624-1.5 1.5-1.5h1c.876 0 1.5.624 1.5 1.5 0 .456-.353.98-.938 1.344-1.234.76-2.316 1.244-3.218 1.75-.452.253-.867.496-1.22.875-.35.377-.624.95-.624 1.53v1h8v-2H8.437c.736-.378 1.58-.756 2.688-1.438C12.14 22.928 13 21.845 13 20.5c0-1.924-1.576-3.5-3.5-3.5h-1z"/></svg>
